X:13648
T:Procession of the Faithless
R:march
Q:300
O:New Zealand
M:4/4
C:Mark Fitzsimons 
K:D
A2d2d3e|fefg fed2|g3ef3d|c2d2e4|
f2a2a3f|gagf edcB|A3B cdeg|f2e2d4:|
a3f gfed|c2d2e4|eAfA gAfA|edcB AGFE|
D2AA EAA2|F2AAG3B|ABcd efga|gecAd4:|
K:dmin
